proprietary/assets/icons/geld-en-financien/loonheffingen.svg

<svg enable-background="new 0 0 64 64" viewBox="0 0 64 64" xmlns="http://www.w3.org/2000/svg"><path d="m0 0h64v64h-64z" fill="none"/><path d="m44.725 35.164c-2.036-5.647-7.08-11.093-10.454-14.284 1.106-.35 1.729-1.5 1.729-2.88 0-1.657-.887-3-2.446-3h-.696c.921-1.109 2.729-2.917 3.304-4.262 1.221-2.856-1.935-3.567-6.162-4.738v-3.406c0-3.938-14.469 1.463-13.25 5.803.717 2.551 2.424 5.206 3.411 6.603h-.715c-1.559 0-2.446 1.343-2.446 3s.887 3 2.446 3h5.975c.021.056.067.262-.25.364-.202.065-5.082.985-8.586 1.642-4.024 4.176-8.872 10.37-9.196 16.249-.389 7.056 2.611 11.745 2.611 11.745l-2.609 4.175c-1.041 1.665.156 3.825 2.12 3.825h25.775c-.228-2.63-.286-5.648-.286-8 0-3.208.105-7.662.606-10.666.403-2.424 2.302-4.324 4.727-4.728 1.271-.212 2.805-.35 4.392-.442zm-12.578 14.5c-1.663.393-2.448.484-4.05.484-4.202 0-7.165-2.056-8.041-6.529h-2.056v-2.297h1.814v-.635c0-.544 0-1.119.061-1.632h-1.875v-2.327h2.237c1.088-4.534 4.172-6.832 8.373-6.832 1.179 0 2.116.091 3.385.363v3.174c-1.481-.272-2.267-.393-3.476-.393-2.298 0-3.809 1.239-4.475 3.688h5.502v2.327h-5.894c-.031.423-.031.846-.031 1.269 0 .363 0 .696.031.998h5.894v2.297h-5.531c.695 2.479 2.328 3.507 4.322 3.507 1.421 0 2.237-.121 3.809-.453v2.991z"/><path d="m55.794 51.93c-.847 0-1.025.976-1.025 1.795 0 1.633.508 1.853 1.005 1.853.706 0 1.063-.552 1.063-1.641.001-1.799-.595-2.007-1.043-2.007z"/><path d="m46.225 46.307c-.863 0-1.044.976-1.044 1.795 0 1.632.518 1.853 1.024 1.853.863 0 1.044-.892 1.044-1.641.001-1.799-.584-2.007-1.024-2.007z"/><path d="m63.435 40.826c-.195-1.173-1.087-2.065-2.261-2.261-3.391-.565-9.044-.565-10.174-.565s-6.783 0-10.174.565c-1.173.196-2.065 1.088-2.26 2.261-.566 3.391-.566 9.044-.566 10.174s0 6.783.565 10.174c.195 1.173 1.087 2.065 2.26 2.261 3.392.565 9.045.565 10.175.565s6.783 0 10.174-.565c1.174-.196 2.066-1.088 2.261-2.261.565-3.391.565-9.044.565-10.174 0-3.393 0-6.783-.565-10.174zm-20.576 7.449c0-2.896 1.844-3.924 3.423-3.924 2.09 0 3.289 1.374 3.289 3.77 0 2.617-1.785 3.809-3.443 3.809-1.491 0-3.269-.634-3.269-3.655zm6.434 9.727-1.839-.727 5.232-13.277 1.839.727zm6.405-.449c-1.491 0-3.269-.634-3.269-3.655 0-2.896 1.844-3.924 3.423-3.924 2.09 0 3.289 1.374 3.289 3.77 0 2.631-1.729 3.809-3.443 3.809z"/></svg>

<?xml version="1.0" encoding="utf-8"?>
<!-- Generator: Adobe Illustrator 25.2.0, SVG Export Plug-In . SVG Version: 6.00 Build 0)  -->
<svg version="1.1" xmlns="http://www.w3.org/2000/svg" xmlns:xlink="http://www.w3.org/1999/xlink" x="0px" y="0px"
	 viewBox="0 0 64 64" style="enable-background:new 0 0 64 64;" xml:space="preserve">
<style type="text/css">
	.st0{fill:none;}
	.st1{fill:#FFFFFF;}
	.st2{fill:#B3B3B3;}
</style>
<g id="Box">
	<rect class="st0" width="64" height="64"/>
</g>
<g id="Icon">
	<g>
		<path d="M44.725,35.164c-2.036-5.647-7.08-11.093-10.454-14.284C35.377,20.53,36,19.38,36,18c0-1.657-0.887-3-2.446-3h-0.696
			c0.921-1.109,2.729-2.917,3.304-4.262C37.383,7.882,34.227,7.171,30,6V2.594c0-3.938-14.469,1.463-13.25,5.803
			c0.717,2.551,2.424,5.206,3.411,6.603h-0.715C17.887,15,17,16.343,17,18c0,1.657,0.887,3,2.446,3h5.975
			c0.021,0.056,0.067,0.262-0.25,0.364c-0.202,0.065-5.082,0.985-8.586,1.642c-4.024,4.176-8.872,10.37-9.196,16.249
			C7,46.311,10,51,10,51l-2.609,4.175C6.35,56.84,7.547,59,9.511,59h25.775C35.058,56.37,35,53.352,35,51
			c0-3.208,0.105-7.662,0.606-10.666c0.403-2.424,2.302-4.324,4.727-4.728C41.604,35.394,43.138,35.256,44.725,35.164z
			 M32.147,49.664L32.147,49.664c-1.663,0.393-2.448,0.484-4.05,0.484c-4.202,0-7.165-2.056-8.041-6.529H18v-2.297h1.814v-0.635
			c0-0.544,0-1.119,0.061-1.632H18v-2.327h2.237c1.088-4.534,4.172-6.832,8.373-6.832c1.179,0,2.116,0.091,3.385,0.363v3.174
			c-1.481-0.272-2.267-0.393-3.476-0.393c-2.298,0-3.809,1.239-4.475,3.688h5.502v2.327h-5.894
			c-0.031,0.423-0.031,0.846-0.031,1.269c0,0.363,0,0.696,0.031,0.998h5.894v2.297h-5.531c0.695,2.479,2.328,3.507,4.322,3.507
			c1.421,0,2.237-0.121,3.809-0.453V49.664z"/>
		<path d="M55.794,51.93c-0.847,0-1.025,0.976-1.025,1.795c0,1.633,0.508,1.853,1.005,1.853c0.706,0,1.063-0.552,1.063-1.641
			C56.838,52.138,56.242,51.93,55.794,51.93z"/>
		<path d="M46.225,46.307c-0.863,0-1.044,0.976-1.044,1.795c0,1.632,0.518,1.853,1.024,1.853c0.863,0,1.044-0.892,1.044-1.641
			C47.25,46.515,46.665,46.307,46.225,46.307z"/>
		<path d="M63.435,40.826c-0.195-1.173-1.087-2.065-2.261-2.261C57.783,38,52.13,38,51,38c-1.13,0-6.783,0-10.174,0.565
			c-1.173,0.196-2.065,1.088-2.26,2.261C38,44.217,38,49.87,38,51c0,1.13,0,6.783,0.565,10.174c0.195,1.173,1.087,2.065,2.26,2.261
			C44.217,64,49.87,64,51,64s6.783,0,10.174-0.565c1.174-0.196,2.066-1.088,2.261-2.261C64,57.783,64,52.13,64,51
			C64,47.607,64,44.217,63.435,40.826z M42.859,48.275c0-2.896,1.844-3.924,3.423-3.924c2.09,0,3.289,1.374,3.289,3.77
			c0,2.617-1.785,3.809-3.443,3.809C44.637,51.93,42.859,51.296,42.859,48.275z M49.293,58.002l-1.839-0.727l5.232-13.277
			l1.839,0.727L49.293,58.002z M55.698,57.553c-1.491,0-3.269-0.634-3.269-3.655c0-2.896,1.844-3.924,3.423-3.924
			c2.09,0,3.289,1.374,3.289,3.77C59.141,56.375,57.412,57.553,55.698,57.553z"/>
	</g>
</g>
</svg>
